; G-Code generated by Simplify3D(R) Version 4.0.0
; Oct 19, 2017 at 1:45:54 PM
; Settings Summary
;   processName,Process1
;   applyToModels,BTF_EXT_SPOOL
;   profileName,BEEVERYCREATIVE BEETHEFIRST (modified)
;   profileVersion,2015-09-04 08:00:00
;   baseProfile,
;   printMaterial,PETG
;   printQuality,Medium
;   printExtruders,
;   extruderName,Primary Extruder
;   extruderToolheadNumber,0
;   extruderDiameter,0.4
;   extruderAutoWidth,0
;   extruderWidth,0.4
;   extrusionMultiplier,1.1
;   extruderUseRetract,1
;   extruderRetractionDistance,1.5
;   extruderExtraRestartDistance,-0.3
;   extruderRetractionZLift,0
;   extruderRetractionSpeed,1800
;   extruderUseCoasting,0
;   extruderCoastingDistance,0.2
;   extruderUseWipe,0
;   extruderWipeDistance,5
;   primaryExtruder,0
;   layerHeight,0.3
;   topSolidLayers,3
;   bottomSolidLayers,3
;   perimeterOutlines,2
;   printPerimetersInsideOut,1
;   startPointOption,2
;   startPointOriginX,0
;   startPointOriginY,0
;   sequentialIslands,0
;   spiralVaseMode,0
;   firstLayerHeightPercentage,90
;   firstLayerWidthPercentage,100
;   firstLayerUnderspeed,0.5
;   useRaft,0
;   raftExtruder,0
;   raftTopLayers,3
;   raftBaseLayers,2
;   raftOffset,3
;   raftSeparationDistance,0.14
;   raftTopInfill,100
;   aboveRaftSpeedMultiplier,0.3
;   useSkirt,1
;   skirtExtruder,0
;   skirtLayers,1
;   skirtOutlines,2
;   skirtOffset,4
;   usePrimePillar,0
;   primePillarExtruder,999
;   primePillarWidth,12
;   primePillarLocation,7
;   primePillarSpeedMultiplier,1
;   useOozeShield,0
;   oozeShieldExtruder,999
;   oozeShieldOffset,2
;   oozeShieldOutlines,1
;   oozeShieldSidewallShape,1
;   oozeShieldSidewallAngle,30
;   oozeShieldSpeedMultiplier,1
;   infillExtruder,0
;   internalInfillPattern,Triangular
;   externalInfillPattern,Rectilinear
;   infillPercentage,40
;   outlineOverlapPercentage,25
;   infillExtrusionWidthPercentage,100
;   minInfillLength,5
;   infillLayerInterval,1
;   internalInfillAngles,0,60,-60
;   overlapInternalInfillAngles,1
;   externalInfillAngles,45,-45
;   generateSupport,0
;   supportExtruder,0
;   supportInfillPercentage,30
;   supportExtraInflation,0
;   supportBaseLayers,0
;   denseSupportExtruder,0
;   denseSupportLayers,0
;   denseSupportInfillPercentage,70
;   supportLayerInterval,1
;   supportHorizontalPartOffset,0.3
;   supportUpperSeparationLayers,1
;   supportLowerSeparationLayers,1
;   supportType,0
;   supportGridSpacing,4
;   maxOverhangAngle,45
;   supportAngles,0
;   temperatureName,Primary Extruder Temperature
;   temperatureNumber,0
;   temperatureSetpointCount,1
;   temperatureSetpointLayers,1
;   temperatureSetpointTemperatures,225
;   temperatureStabilizeAtStartup,1
;   temperatureHeatedBed,0
;   temperatureRelayBetweenLayers,0
;   temperatureRelayBetweenLoops,0
;   fanLayers,1,2
;   fanSpeeds,0,35
;   blipFanToFullPower,1
;   adjustSpeedForCooling,1
;   minSpeedLayerTime,15
;   minCoolingSpeedSlowdown,20
;   increaseFanForCooling,0
;   minFanLayerTime,45
;   maxCoolingFanSpeed,100
;   increaseFanForBridging,0
;   bridgingFanSpeed,100
;   use5D,1
;   relativeEdistances,0
;   allowEaxisZeroing,0
;   independentExtruderAxes,0
;   includeM10123,0
;   stickySupport,1
;   applyToolheadOffsets,0
;   gcodeXoffset,0
;   gcodeYoffset,0
;   gcodeZoffset,0
;   overrideMachineDefinition,1
;   machineTypeOverride,0
;   strokeXoverride,190
;   strokeYoverride,135
;   strokeZoverride,125
;   originOffsetXoverride,95
;   originOffsetYoverride,67.5
;   originOffsetZoverride,0
;   homeXdirOverride,-1
;   homeYdirOverride,-1
;   homeZdirOverride,-1
;   flipXoverride,1
;   flipYoverride,-1
;   flipZoverride,1
;   toolheadOffsets,0,0|0,0|0,0|0,0|0,0|0,0
;   overrideFirmwareConfiguration,1
;   firmwareTypeOverride,RepRap (Marlin/Repetier/Sprinter)
;   GPXconfigOverride,r2
;   baudRateOverride,115200
;   overridePrinterModels,1
;   printerModelsOverride
;   startingGcode,M300,G28,M206 X500,M107,M104 S[extruder0_temperature],G92 E,M642 W1,M130 T6 U1.3 V80,G1 X-98.0 Y-20.0 Z5.0 F3000,G1 Y-68.0 Z0.3,G1 X-98.0 Y0.0 F500 E20,G92 E
;   layerChangeGcode,
;   retractionGcode,
;   toolChangeGcode,
;   endingGcode,M300,M104 S0,G28 X,G28 Z,G1 Y65,M107,M641 A1
;   exportFileFormat,gcode
;   celebration,0
;   celebrationSong,Random Song
;   postProcessing,
;   defaultSpeed,3600
;   outlineUnderspeed,0.5
;   solidInfillUnderspeed,0.5
;   supportUnderspeed,0.8
;   rapidXYspeed,6000
;   rapidZspeed,1002
;   minBridgingArea,50
;   bridgingExtraInflation,0
;   bridgingExtrusionMultiplier,1
;   bridgingSpeedMultiplier,1
;   useFixedBridgingAngle,0
;   fixedBridgingAngle,0
;   applyBridgingToPerimeters,0
;   filamentDiameters,1.75|1.75|1.75|1.75|1.75|1.75
;   filamentPricesPerKg,46|46|46|46|46|46
;   filamentDensities,1.25|1.25|1.25|1.25|1.25|1.25
;   useMinPrintHeight,0
;   minPrintHeight,0
;   useMaxPrintHeight,0
;   maxPrintHeight,0
;   useDiaphragm,0
;   diaphragmLayerInterval,20
;   robustSlicing,1
;   mergeAllIntoSolid,0
;   onlyRetractWhenCrossingOutline,1
;   retractBetweenLayers,1
;   useRetractionMinTravel,0
;   retractionMinTravel,3
;   retractWhileWiping,0
;   onlyWipeOutlines,1
;   avoidCrossingOutline,0
;   maxMovementDetourFactor,3
;   toolChangeRetractionDistance,12
;   toolChangeExtraRestartDistance,-0.5
;   toolChangeRetractionSpeed,600
;   externalThinWallType,0
;   internalThinWallType,2
;   thinWallAllowedOverlapPercentage,10
;   singleExtrusionMinLength,1
;   singleExtrusionMinPrintingWidthPercentage,50
;   singleExtrusionMaxPrintingWidthPercentage,200
;   singleExtrusionEndpointExtension,0.2
;   horizontalSizeCompensation,0
G90
M82
M106 S255
G4 P500
M106 S0
M300
G28
M206 X500
M107
M104 S225
G92 E
M642 W1
M130 T6 U1.3 V80
G1 X-98.0 Y-20.0 Z5.0 F3000
G1 Y-68.0 Z0.3
G1 X-98.0 Y0.0 F500 E20
G92 E
G1 E-1.5000 F1800
G1 Z0.270 F1002
; process Process1
; layer 1, Z = 0.270
T0
; tool H0.300 W0.400
; skirt
G1 X27.840 Y-8.202 F6000
G1 E-0.3000 F540
G1 X-61.358 Y-0.085 E4.6154 F1800
G1 X-61.372 Y-0.084 E4.6161
G1 X-61.567 Y-0.075 E4.6268
G1 X-61.580 Y-0.075 E4.6276
G1 X-70.023 Y-0.075 E5.0909
G1 X-70.037 Y-0.075 E5.0916
G1 X-70.231 Y-0.084 E5.1023
G1 X-70.244 Y-0.085 E5.1030
G1 X-71.374 Y-0.187 E5.1653
G1 X-71.394 Y-0.190 E5.1664
G1 X-71.677 Y-0.235 E5.1821
G1 X-71.697 Y-0.238 E5.1832
G1 X-72.418 Y-0.402 E5.2238
G1 X-72.433 Y-0.406 E5.2247
G1 X-72.654 Y-0.469 E5.2373
G1 X-72.669 Y-0.474 E5.2381
G1 X-73.367 Y-0.713 E5.2786
G1 X-73.381 Y-0.718 E5.2794
G1 X-73.581 Y-0.798 E5.2913
G1 X-73.595 Y-0.804 E5.2921
G1 X-74.273 Y-1.115 E5.3330
G1 X-74.287 Y-1.122 E5.3339
G1 X-74.484 Y-1.225 E5.3461
G1 X-74.497 Y-1.232 E5.3469
G1 X-75.096 Y-1.586 E5.3851
G1 X-75.109 Y-1.594 E5.3859
G1 X-75.285 Y-1.710 E5.3975
G1 X-75.297 Y-1.719 E5.3983
G1 X-75.884 Y-2.149 E5.4382
G1 X-75.896 Y-2.158 E5.4391
G1 X-76.061 Y-2.292 E5.4507
G1 X-76.072 Y-2.301 E5.4515
G1 X-76.617 Y-2.789 E5.4917
G1 X-76.628 Y-2.800 E5.4925
G1 X-76.790 Y-2.961 E5.5051
G1 X-76.801 Y-2.973 E5.5059
G1 X-77.296 Y-3.522 E5.5465
G1 X-77.306 Y-3.533 E5.5474
G1 X-77.444 Y-3.704 E5.5594
G1 X-77.454 Y-3.716 E5.5602
G1 X-77.888 Y-4.310 E5.6006
G1 X-77.898 Y-4.323 E5.6015
G1 X-78.023 Y-4.515 E5.6141
G1 X-78.031 Y-4.528 E5.6149
G1 X-78.409 Y-5.179 E5.6562
G1 X-78.416 Y-5.192 E5.6571
G1 X-78.512 Y-5.380 E5.6686
G1 X-78.519 Y-5.393 E5.6695
G1 X-78.803 Y-6.017 E5.7071
G1 X-78.808 Y-6.030 E5.7079
G1 X-78.886 Y-6.225 E5.7193
G1 X-78.891 Y-6.238 E5.7201
G1 X-79.119 Y-6.906 E5.7589
G1 X-79.124 Y-6.920 E5.7597
G1 X-79.184 Y-7.129 E5.7716
G1 X-79.187 Y-7.143 E5.7724
G1 X-79.343 Y-7.809 E5.8099
G1 X-79.345 Y-7.822 E5.8107
G1 X-79.381 Y-8.012 E5.8212
G1 X-79.383 Y-8.025 E5.8220
G1 X-79.482 Y-8.730 E5.8610
G1 X-79.484 Y-8.750 E5.8622
G1 X-79.505 Y-9.047 E5.8785
G1 X-79.505 Y-9.067 E5.8796
G1 X-79.528 Y-28.639 E6.9537
G1 X-79.436 Y-28.861 E6.9669
G1 X-76.890 Y-31.382 E7.1635
G1 X-76.667 Y-31.473 E7.1767
G1 X-73.592 Y-31.439 E7.3455
G1 X-73.573 Y-31.438 E7.3465
G1 X-73.302 Y-31.418 E7.3614
G1 X-73.284 Y-31.416 E7.3625
G1 X-72.714 Y-31.337 E7.3940
G1 X-72.693 Y-31.333 E7.3952
G1 X-72.387 Y-31.268 E7.4124
G1 X-72.366 Y-31.263 E7.4136
G1 X-71.455 Y-30.998 E7.4656
G1 X-71.427 Y-30.989 E7.4672
G1 X-71.034 Y-30.831 E7.4904
G1 X-71.008 Y-30.819 E7.4921
G1 X-70.141 Y-30.368 E7.5457
G1 X-70.121 Y-30.357 E7.5469
G1 X-69.844 Y-30.185 E7.5648
G1 X-69.825 Y-30.172 E7.5660
G1 X-69.310 Y-29.796 E7.6010
G1 X-69.292 Y-29.782 E7.6023
G1 X-69.036 Y-29.562 E7.6208
G1 X-69.019 Y-29.546 E7.6221
G1 X-68.314 Y-28.838 E7.6770
G1 X-68.301 Y-28.823 E7.6781
G1 X-68.267 Y-28.862 E7.6809
G1 X-68.252 Y-28.879 E7.6821
G1 X-67.588 Y-29.545 E7.7337
G1 X-67.571 Y-29.561 E7.7350
G1 X-67.323 Y-29.774 E7.7530
G1 X-67.305 Y-29.789 E7.7542
G1 X-66.793 Y-30.166 E7.7891
G1 X-66.773 Y-30.179 E7.7904
G1 X-66.490 Y-30.355 E7.8087
G1 X-66.470 Y-30.367 E7.8100
G1 X-65.641 Y-30.798 E7.8613
G1 X-65.620 Y-30.808 E7.8626
G1 X-65.317 Y-30.937 E7.8806
G1 X-65.295 Y-30.945 E7.8819
G1 X-64.715 Y-31.141 E7.9155
G1 X-64.695 Y-31.147 E7.9166
G1 X-64.404 Y-31.223 E7.9331
G1 X-64.384 Y-31.228 E7.9343
G1 X-63.483 Y-31.398 E7.9846
G1 X-63.455 Y-31.402 E7.9861
G1 X-63.056 Y-31.439 E8.0081
G1 X-63.028 Y-31.440 E8.0097
G1 X71.681 Y-31.453 E15.4024
G1 X71.895 Y-31.368 E15.4150
G1 X74.377 Y-29.012 E15.6029
G1 X74.474 Y-28.802 E15.6155
G1 X78.209 Y42.529 E19.5355
G1 X78.130 Y42.754 E19.5486
G1 X75.752 Y45.394 E19.7436
G1 X75.537 Y45.497 E19.7567
G1 X59.822 Y46.319 E20.6203
G1 X59.597 Y46.239 E20.6334
G1 X56.958 Y43.862 E20.8283
G1 X56.855 Y43.647 E20.8414
G1 X53.965 Y-11.430 E23.8681
G1 X31.863 Y-8.245 E25.0936
G1 X31.842 Y-8.243 E25.0947
G1 X31.546 Y-8.221 E25.1111
G1 X31.525 Y-8.220 E25.1122
G1 X27.840 Y-8.202 E25.3144
G1 X-57.078 Y9.099 F6000
G1 X-57.078 Y34.843 E26.7272 F1800
G1 X-57.171 Y35.064 E26.7404
G1 X-59.715 Y37.582 E26.9368
G1 X-59.938 Y37.672 E26.9500
G1 X-63.067 Y37.638 E27.1218
G1 X-63.093 Y37.637 E27.1232
G1 X-63.471 Y37.599 E27.1441
G1 X-63.497 Y37.596 E27.1455
G1 X-64.387 Y37.427 E27.1952
G1 X-64.407 Y37.422 E27.1964
G1 X-64.697 Y37.346 E27.2128
G1 X-64.717 Y37.340 E27.2139
G1 X-65.297 Y37.144 E27.2475
G1 X-65.318 Y37.136 E27.2488
G1 X-65.621 Y37.007 E27.2668
G1 X-65.642 Y36.997 E27.2681
G1 X-66.471 Y36.566 E27.3194
G1 X-66.491 Y36.555 E27.3207
G1 X-66.775 Y36.378 E27.3390
G1 X-66.794 Y36.365 E27.3403
G1 X-67.304 Y35.989 E27.3750
G1 X-67.321 Y35.975 E27.3763
G1 X-67.566 Y35.765 E27.3940
G1 X-67.583 Y35.749 E27.3952
G1 X-68.287 Y35.045 E27.4499
G1 X-68.306 Y35.025 E27.4514
G1 X-68.340 Y35.065 E27.4543
G1 X-68.355 Y35.082 E27.4555
G1 X-69.061 Y35.788 E27.5103
G1 X-69.083 Y35.808 E27.5120
G1 X-69.423 Y36.085 E27.5360
G1 X-69.447 Y36.103 E27.5377
G1 X-70.278 Y36.650 E27.5923
G1 X-70.298 Y36.662 E27.5936
G1 X-70.594 Y36.825 E27.6121
G1 X-70.615 Y36.836 E27.6134
G1 X-71.184 Y37.094 E27.6476
G1 X-71.204 Y37.102 E27.6488
G1 X-71.492 Y37.208 E27.6657
G1 X-71.513 Y37.215 E27.6669
G1 X-72.413 Y37.476 E27.7183
G1 X-72.441 Y37.483 E27.7199
G1 X-72.843 Y37.559 E27.7423
G1 X-72.871 Y37.563 E27.7439
G1 X-73.726 Y37.643 E27.7911
G1 X-73.740 Y37.643 E27.7918
G1 X-73.939 Y37.653 E27.8027
G1 X-73.953 Y37.653 E27.8035
G1 X-76.702 Y37.653 E27.9544
G1 X-76.923 Y37.562 E27.9675
G1 X-79.435 Y35.050 E28.1624
G1 X-79.526 Y34.829 E28.1755
G1 X-79.525 Y15.800 E29.2199
G1 X-79.525 Y15.793 E29.2202
G1 X-79.523 Y15.694 E29.2257
G1 X-79.523 Y15.687 E29.2261
G1 X-79.496 Y15.109 E29.2578
G1 X-79.495 Y15.095 E29.2586
G1 X-79.476 Y14.895 E29.2696
G1 X-79.475 Y14.881 E29.2704
G1 X-79.383 Y14.224 E29.3068
G1 X-79.380 Y14.211 E29.3075
G1 X-79.345 Y14.022 E29.3181
G1 X-79.342 Y14.009 E29.3188
G1 X-79.188 Y13.346 E29.3562
G1 X-79.184 Y13.331 E29.3570
G1 X-79.126 Y13.128 E29.3686
G1 X-79.122 Y13.114 E29.3694
G1 X-78.903 Y12.469 E29.4068
G1 X-78.897 Y12.454 E29.4076
G1 X-78.815 Y12.247 E29.4199
G1 X-78.809 Y12.232 E29.4207
G1 X-78.485 Y11.529 E29.4632
G1 X-78.479 Y11.516 E29.4640
G1 X-78.380 Y11.326 E29.4758
G1 X-78.373 Y11.313 E29.4766
G1 X-78.024 Y10.718 E29.5144
G1 X-78.016 Y10.706 E29.5152
G1 X-77.902 Y10.531 E29.5267
G1 X-77.893 Y10.519 E29.5275
G1 X-77.481 Y9.951 E29.5660
G1 X-77.472 Y9.938 E29.5669
G1 X-77.333 Y9.766 E29.5790
G1 X-77.323 Y9.754 E29.5799
G1 X-76.808 Y9.181 E29.6222
G1 X-76.797 Y9.169 E29.6231
G1 X-76.631 Y9.003 E29.6360
G1 X-76.619 Y8.991 E29.6368
G1 X-76.072 Y8.501 E29.6771
G1 X-76.061 Y8.492 E29.6780
G1 X-75.896 Y8.358 E29.6896
G1 X-75.884 Y8.349 E29.6904
G1 X-75.297 Y7.919 E29.7304
G1 X-75.285 Y7.910 E29.7312
G1 X-75.107 Y7.793 E29.7429
G1 X-75.095 Y7.785 E29.7437
G1 X-74.471 Y7.417 E29.7834
G1 X-74.457 Y7.409 E29.7843
G1 X-74.253 Y7.303 E29.7969
G1 X-74.239 Y7.296 E29.7978
G1 X-73.585 Y7.000 E29.8372
G1 X-73.572 Y6.994 E29.8380
G1 X-73.386 Y6.920 E29.8489
G1 X-73.373 Y6.915 E29.8497
G1 X-72.711 Y6.686 E29.8882
G1 X-72.696 Y6.681 E29.8890
G1 X-72.480 Y6.619 E29.9014
G1 X-72.464 Y6.615 E29.9023
G1 X-71.743 Y6.447 E29.9429
G1 X-71.723 Y6.443 E29.9440
G1 X-71.434 Y6.396 E29.9601
G1 X-71.414 Y6.394 E29.9612
G1 X-70.253 Y6.286 E30.0252
G1 X-70.239 Y6.285 E30.0259
G1 X-70.040 Y6.275 E30.0369
G1 X-70.026 Y6.275 E30.0377
G1 X-59.902 Y6.275 E30.5933
G1 X-59.681 Y6.366 E30.6064
G1 X-57.169 Y8.878 E30.8013
G1 X-57.078 Y9.099 E30.8144
G1 X-57.478 Y9.178 F6000
G1 X-57.478 Y34.762 E32.2185 F1800
G1 X-57.509 Y34.836 E32.2228
G1 X-59.939 Y37.241 E32.4105
G1 X-60.014 Y37.271 E32.4149
G1 X-63.054 Y37.238 E32.5817
G1 X-63.063 Y37.238 E32.5822
G1 X-63.423 Y37.202 E32.6021
G1 X-63.431 Y37.201 E32.6026
G1 X-64.306 Y37.035 E32.6514
G1 X-64.313 Y37.034 E32.6518
G1 X-64.589 Y36.961 E32.6674
G1 X-64.595 Y36.959 E32.6678
G1 X-65.161 Y36.768 E32.7006
G1 X-65.168 Y36.765 E32.7010
G1 X-65.457 Y36.642 E32.7183
G1 X-65.464 Y36.639 E32.7187
G1 X-66.279 Y36.215 E32.7691
G1 X-66.286 Y36.211 E32.7695
G1 X-66.556 Y36.043 E32.7870
G1 X-66.563 Y36.038 E32.7874
G1 X-67.060 Y35.672 E32.8213
G1 X-67.066 Y35.667 E32.8218
G1 X-67.300 Y35.466 E32.8387
G1 X-67.305 Y35.461 E32.8391
G1 X-67.997 Y34.770 E32.8928
G1 X-68.004 Y34.762 E32.8933
G1 X-68.270 Y34.436 E32.9164
G1 X-68.276 Y34.428 E32.9170
G1 X-68.305 Y34.384 E32.9199
G1 X-68.429 Y34.553 E32.9314
G1 X-68.434 Y34.559 E32.9318
G1 X-68.639 Y34.799 E32.9491
G1 X-68.644 Y34.804 E32.9495
G1 X-69.337 Y35.498 E33.0033
G1 X-69.344 Y35.505 E33.0039
G1 X-69.668 Y35.768 E33.0268
G1 X-69.676 Y35.774 E33.0273
G1 X-70.492 Y36.312 E33.0810
G1 X-70.498 Y36.316 E33.0814
G1 X-70.780 Y36.471 E33.0991
G1 X-70.787 Y36.475 E33.0995
G1 X-71.342 Y36.726 E33.1329
G1 X-71.349 Y36.729 E33.1333
G1 X-71.624 Y36.831 E33.1494
G1 X-71.631 Y36.833 E33.1498
G1 X-72.516 Y37.090 E33.2004
G1 X-72.525 Y37.092 E33.2009
G1 X-72.908 Y37.164 E33.2223
G1 X-72.917 Y37.166 E33.2228
G1 X-73.759 Y37.244 E33.2692
G1 X-73.763 Y37.244 E33.2694
G1 X-73.953 Y37.253 E33.2798
G1 X-73.957 Y37.253 E33.2801
G1 X-76.623 Y37.253 E33.4264
G1 X-76.696 Y37.223 E33.4307
G1 X-79.096 Y34.823 E33.6170
G1 X-79.126 Y34.750 E33.6213
G1 X-79.125 Y15.802 E34.6611
G1 X-79.125 Y15.800 E34.6613
G1 X-79.123 Y15.705 E34.6665
G1 X-79.123 Y15.703 E34.6666
G1 X-79.097 Y15.132 E34.6980
G1 X-79.096 Y15.127 E34.6982
G1 X-79.079 Y14.937 E34.7087
G1 X-79.078 Y14.932 E34.7090
G1 X-78.987 Y14.284 E34.7449
G1 X-78.986 Y14.280 E34.7451
G1 X-78.953 Y14.099 E34.7552
G1 X-78.952 Y14.095 E34.7554
G1 X-78.800 Y13.441 E34.7923
G1 X-78.798 Y13.437 E34.7925
G1 X-78.743 Y13.243 E34.8036
G1 X-78.742 Y13.238 E34.8039
G1 X-78.526 Y12.602 E34.8407
G1 X-78.524 Y12.597 E34.8410
G1 X-78.445 Y12.399 E34.8527
G1 X-78.443 Y12.395 E34.8530
G1 X-78.124 Y11.701 E34.8949
G1 X-78.122 Y11.696 E34.8952
G1 X-78.028 Y11.516 E34.9063
G1 X-78.025 Y11.511 E34.9066
G1 X-77.681 Y10.925 E34.9439
G1 X-77.679 Y10.921 E34.9442
G1 X-77.569 Y10.754 E34.9551
G1 X-77.567 Y10.750 E34.9554
G1 X-77.160 Y10.190 E34.9934
G1 X-77.157 Y10.186 E34.9937
G1 X-77.025 Y10.021 E35.0053
G1 X-77.021 Y10.017 E35.0055
G1 X-76.514 Y9.452 E35.0472
G1 X-76.510 Y9.448 E35.0475
G1 X-76.352 Y9.289 E35.0598
G1 X-76.348 Y9.286 E35.0601
G1 X-75.809 Y8.802 E35.0998
G1 X-75.805 Y8.799 E35.1001
G1 X-75.648 Y8.672 E35.1112
G1 X-75.644 Y8.669 E35.1115
G1 X-75.065 Y8.244 E35.1509
G1 X-75.061 Y8.242 E35.1512
G1 X-74.891 Y8.130 E35.1623
